X: 37789
T: Song Of The Strings, The
R: reel
M: 4/4
K: Cmajor
G3c d4|G2c4 d/c/B|c6- cd|e6 f/<e/d/<c/|
d2G4- GA|_B3A G3F|E3F G2c2-|c2d/c/B c4:|
e3f g3g/e/|d2c4 d/c/B|c6- cd|e6 f/<e/d/<c/|
e2 d6|e3f g3g/e/|d2c4 (6G/A/B/c/d/e/|f3e d4|
G3c d3(3e/d/c/|c6 d/c/B|c6- cd|e6 f/<e/d/<c/|
d2G4- GA|_B3A G3F|E3F G2c2-|c2d/c/B c4||

